_includes/icons/ios-anonymous-mask.svg

<svg fill="#666" height="50" viewBox="0 0 50 50" width="50" xmlns="http://www.w3.org/2000/svg"><path d="m25 2c-9.941406 0-18 2.6875-18 6v17c0 5.082031 5.417969 19.082031 18 22 12.582031-2.917969 18-16.917969 18-22v-17c0-3.3125-8.058594-6-18-6zm0 2c10.5 0 16 2.972656 16 4v17c0 4.136719-4.332031 15.523438-14 19.296875v-6.296875h-4v6.296875c-9.667969-3.773437-14-15.160156-14-19.296875v-17c0-1.027344 5.5-4 16-4zm-8 7c-1.996094 0-4.144531.878906-6 4 1.953125-1.359375 3.613281-2 5-2 2.6875 0 4.027344 3.148438 4.4375 3.5625.585938.585938 1.535156.585938 2.125 0 .585938-.585937.585938-1.535156 0-2.125-.367187-.363281-2.125-3.4375-5.5625-3.4375zm16 0c-3.4375 0-5.195312 3.074219-5.5625 3.4375-.585937.589844-.585937 1.539063 0 2.125.589844.585938 1.539063.585938 2.125 0 .410156-.414062 1.75-3.5625 4.4375-3.5625 1.386719 0 3.046875.640625 5 2-1.855469-3.121094-4.003906-4-6-4zm-17 6c-1.640625 0-3.082031.59375-4 1.5.917969.90625 2.359375 1.5 4 1.5s3.082031-.59375 4-1.5c-.917969-.90625-2.359375-1.5-4-1.5zm18 0c-1.640625 0-3.082031.59375-4 1.5.917969.90625 2.359375 1.5 4 1.5s3.082031-.59375 4-1.5c-.917969-.90625-2.359375-1.5-4-1.5zm-23 9 5 8h7l2-2 2 2h7l5-8-6 5h-4l-3-3h-2l-3 3h-4z"/></svg>

<svg xmlns="http://www.w3.org/2000/svg" viewBox="0 0 50 50" width="50" height="50" fill="#666"><path d="M 25 2 C 15.058594 2 7 4.6875 7 8 L 7 25 C 7 30.082031 12.417969 44.082031 25 47 C 37.582031 44.082031 43 30.082031 43 25 L 43 8 C 43 4.6875 34.941406 2 25 2 Z M 25 4 C 35.5 4 41 6.972656 41 8 L 41 25 C 41 29.136719 36.667969 40.523438 27 44.296875 L 27 38 L 23 38 L 23 44.296875 C 13.332031 40.523438 9 29.136719 9 25 L 9 8 C 9 6.972656 14.5 4 25 4 Z M 17 11 C 15.003906 11 12.855469 11.878906 11 15 C 12.953125 13.640625 14.613281 13 16 13 C 18.6875 13 20.027344 16.148438 20.4375 16.5625 C 21.023438 17.148438 21.972656 17.148438 22.5625 16.5625 C 23.148438 15.976563 23.148438 15.027344 22.5625 14.4375 C 22.195313 14.074219 20.4375 11 17 11 Z M 33 11 C 29.5625 11 27.804688 14.074219 27.4375 14.4375 C 26.851563 15.027344 26.851563 15.976563 27.4375 16.5625 C 28.027344 17.148438 28.976563 17.148438 29.5625 16.5625 C 29.972656 16.148438 31.3125 13 34 13 C 35.386719 13 37.046875 13.640625 39 15 C 37.144531 11.878906 34.996094 11 33 11 Z M 16 17 C 14.359375 17 12.917969 17.59375 12 18.5 C 12.917969 19.40625 14.359375 20 16 20 C 17.640625 20 19.082031 19.40625 20 18.5 C 19.082031 17.59375 17.640625 17 16 17 Z M 34 17 C 32.359375 17 30.917969 17.59375 30 18.5 C 30.917969 19.40625 32.359375 20 34 20 C 35.640625 20 37.082031 19.40625 38 18.5 C 37.082031 17.59375 35.640625 17 34 17 Z M 11 26 L 16 34 L 23 34 L 25 32 L 27 34 L 34 34 L 39 26 L 33 31 L 29 31 L 26 28 L 24 28 L 21 31 L 17 31 Z"/></svg>
